_includes/icons/ios-combo-chart.svg

<svg fill="#666" height="50" viewBox="0 0 50 50" width="50" xmlns="http://www.w3.org/2000/svg"><path d="m45 2c-1.105469 0-2 .894531-2 2 0 .292969.074219.5625.1875.8125l-8 11.1875c-.0625-.003906-.125 0-.1875 0-.398437 0-.78125.109375-1.09375.3125l-6.90625-3.4375c-.066406-1.046875-.9375-1.875-2-1.875-1.105469 0-2 .894531-2 2 0 .105469.015625.210938.03125.3125l-7.3125 5.8125c-.222656-.085937-.464844-.125-.71875-.125-1 0-1.820312.730469-1.96875 1.6875l-6.8125 2.75c-.339844-.265625-.757812-.4375-1.21875-.4375-1.105469 0-2 .894531-2 2s.894531 2 2 2c1.007813 0 1.832031-.746094 1.96875-1.71875l6.8125-2.71875c.339844.265625.757813.4375 1.21875.4375 1.105469 0 2-.894531 2-2 0-.105469-.015625-.210937-.03125-.3125l7.3125-5.8125c.222656.085938.464844.125.71875.125.398438 0 .78125-.109375 1.09375-.3125l6.90625 3.4375c.066406 1.046875.9375 1.875 2 1.875 1.105469 0 2-.894531 2-2 0-.292969-.074219-.5625-.1875-.8125l8-11.1875c.0625.003906.125 0 .1875 0 1.105469 0 2-.894531 2-2s-.894531-2-2-2zm-4 13v35h8v-35zm2 2h4v31h-4zm-22 7v26h8v-26zm2 2h4v22h-4zm8 3v21h8v-21zm2 2h4v17h-4zm-22 1v18h8v-18zm2 2h4v14h-4zm-12 2v14h8v-14zm2 2h4v10h-4z"/></svg>

<svg xmlns="http://www.w3.org/2000/svg" viewBox="0 0 50 50" width="50" height="50" fill="#666"><path d="M 45 2 C 43.894531 2 43 2.894531 43 4 C 43 4.292969 43.074219 4.5625 43.1875 4.8125 L 35.1875 16 C 35.125 15.996094 35.0625 16 35 16 C 34.601563 16 34.21875 16.109375 33.90625 16.3125 L 27 12.875 C 26.933594 11.828125 26.0625 11 25 11 C 23.894531 11 23 11.894531 23 13 C 23 13.105469 23.015625 13.210938 23.03125 13.3125 L 15.71875 19.125 C 15.496094 19.039063 15.253906 19 15 19 C 14 19 13.179688 19.730469 13.03125 20.6875 L 6.21875 23.4375 C 5.878906 23.171875 5.460938 23 5 23 C 3.894531 23 3 23.894531 3 25 C 3 26.105469 3.894531 27 5 27 C 6.007813 27 6.832031 26.253906 6.96875 25.28125 L 13.78125 22.5625 C 14.121094 22.828125 14.539063 23 15 23 C 16.105469 23 17 22.105469 17 21 C 17 20.894531 16.984375 20.789063 16.96875 20.6875 L 24.28125 14.875 C 24.503906 14.960938 24.746094 15 25 15 C 25.398438 15 25.78125 14.890625 26.09375 14.6875 L 33 18.125 C 33.066406 19.171875 33.9375 20 35 20 C 36.105469 20 37 19.105469 37 18 C 37 17.707031 36.925781 17.4375 36.8125 17.1875 L 44.8125 6 C 44.875 6.003906 44.9375 6 45 6 C 46.105469 6 47 5.105469 47 4 C 47 2.894531 46.105469 2 45 2 Z M 41 15 L 41 50 L 49 50 L 49 15 Z M 43 17 L 47 17 L 47 48 L 43 48 Z M 21 24 L 21 50 L 29 50 L 29 24 Z M 23 26 L 27 26 L 27 48 L 23 48 Z M 31 29 L 31 50 L 39 50 L 39 29 Z M 33 31 L 37 31 L 37 48 L 33 48 Z M 11 32 L 11 50 L 19 50 L 19 32 Z M 13 34 L 17 34 L 17 48 L 13 48 Z M 1 36 L 1 50 L 9 50 L 9 36 Z M 3 38 L 7 38 L 7 48 L 3 48 Z"/></svg>
